svg/material-icons/swipe_up/materialicons/20px.svg

<svg xmlns="http://www.w3.org/2000/svg" width="20" height="20" viewBox="0 0 20 20"><path d="M4 5.5c0 2.03.75 3.88 2 5.29l-.71.71A8.976 8.976 0 0 1 3 5.5c0-.93.14-1.82.4-2.66L1.71 4.53 1 3.83 3.83 1l2.83 2.83-.72.7L4.4 2.99C4.14 3.78 4 4.62 4 5.5zm10.02 3.34-1.52.68-1.92-4.34c-.28-.63-1.02-.92-1.65-.64-.64.28-.92 1.02-.64 1.65l3.54 8-2.22.21c-.57.05-1.05.42-1.26.95l-.18.45 4.7 1.81c.37.14.78.13 1.15-.03l4.82-2.13c.67-.3 1.03-1.04.84-1.75l-.92-3.59c-.16-.62-.73-1.08-1.38-1.11l-3.36-.16z"/></svg>

<svg xmlns="http://www.w3.org/2000/svg" enable-background="new 0 0 20 20" height="20" viewBox="0 0 20 20" width="20"><g><rect fill="none" height="20" width="20"/></g><g><path d="M4,5.5c0,2.03,0.75,3.88,2,5.29L5.29,11.5C3.87,9.91,3,7.81,3,5.5c0-0.93,0.14-1.82,0.4-2.66L1.71,4.53L1,3.83L3.83,1 l2.83,2.83L5.94,4.53L4.4,2.99C4.14,3.78,4,4.62,4,5.5z M14.02,8.84L12.5,9.52l-1.92-4.34c-0.28-0.63-1.02-0.92-1.65-0.64l0,0 C8.29,4.82,8.01,5.56,8.29,6.19l3.54,8L9.61,14.4c-0.57,0.05-1.05,0.42-1.26,0.95l-0.18,0.45l4.7,1.81 c0.37,0.14,0.78,0.13,1.15-0.03l4.82-2.13c0.67-0.3,1.03-1.04,0.84-1.75l-0.92-3.59C18.6,9.49,18.03,9.03,17.38,9L14.02,8.84z"/></g></svg>
